X:304
T:Haggis, The
T:Taigeis Agus Dealg Innte
R:reel
C:Captain Simon Fraser
B:The Athole Collection
M:C|
L:1/8
K:C
F|E/F/G Gc GEEF|E/F/G GB c2 ce|E/F/G Gc GcGE|D/D/D _BD F2F:|
g|ecgc eccg|ecge f2fa|ecgc acgc|d/d/d _bd f2 fa|ecgc eccg|ecge fagf|
ecdB cAGE|D/D/D _BD F2F||

